assets/images/avatars/user/custom-avatars/season-f1/medal-yellow400.svg

<svg width="52" height="52" viewBox="0 0 52 52" fill="none" xmlns="http://www.w3.org/2000/svg">
<g clip-path="url(#clip0_26_81630)">
<rect width="52" height="52" fill="#FED607"/>
<path d="M26 52C40.3594 52 52 40.3594 52 26C52 11.6406 40.3594 0 26 0C11.6406 0 0 11.6406 0 26C0 40.3594 11.6406 52 26 52Z" fill="#FED607"/>
<path d="M25.9999 46.7669C37.4691 46.7669 46.7667 37.4693 46.7667 26.0002C46.7667 14.531 37.4691 5.2334 25.9999 5.2334C14.5308 5.2334 5.23315 14.531 5.23315 26.0002C5.23315 37.4693 14.5308 46.7669 25.9999 46.7669Z" fill="#FED607" stroke="#002140" stroke-width="0.65" stroke-miterlimit="10"/>
<path d="M43.9044 20.3476L34.2928 36.6356L34.016 36.7118C33.5487 35.4381 32.7803 34.3132 31.7974 33.4202L32.7249 33.216L42.1738 17.904L42.4092 17.8486C43.1637 19.0496 43.8352 20.1434 43.9044 20.3476Z" fill="#E4BC07"/>
<path d="M37.9894 18.0289L36.3489 20.8359H27.6787H27.2911H16.0147L14.3049 17.9147L14.3222 17.9043H37.7749L37.9894 18.0289Z" fill="#E4BC07"/>
<path d="M34.0159 36.712C34.3412 37.605 34.5177 38.5637 34.5177 39.5675C34.5177 44.1569 30.8005 47.8742 26.211 47.8742C21.6215 47.8742 17.9043 44.1569 17.9043 39.5675C17.9043 38.5637 18.0808 37.605 18.4096 36.712C18.78 35.6944 19.3476 34.7703 20.064 33.9812C20.7666 33.2059 21.6181 32.5656 22.5699 32.1018C23.6705 31.5619 24.9062 31.2607 26.211 31.2607C27.2147 31.2607 28.1769 31.4373 29.0664 31.7661C30.084 32.1364 31.0116 32.704 31.7973 33.4205C32.7802 34.3135 33.5486 35.4383 34.0159 36.712Z" fill="#FFF2B2"/>
<path d="M19.8599 33.5417L20.0641 33.9812C19.3477 34.7704 18.7801 35.6945 18.4097 36.7121L18.0671 36.6359L8.45898 20.3478C8.53513 20.1194 9.37272 18.7627 10.238 17.3955L10.5737 17.4163L19.8599 33.5417Z" fill="#E4BC07"/>
<path d="M34.0159 36.712C34.3412 37.605 34.5177 38.5637 34.5177 39.5675C34.5177 44.1569 30.8005 47.8742 26.211 47.8742C21.6215 47.8742 17.9043 44.1569 17.9043 39.5675C17.9043 38.5637 18.0808 37.605 18.4096 36.712C18.78 35.6944 19.3476 34.7703 20.064 33.9812C20.7666 33.2059 21.6181 32.5656 22.5699 32.1018C23.6705 31.5619 24.9062 31.2607 26.211 31.2607C27.2147 31.2607 28.1769 31.4373 29.0664 31.7661C30.084 32.1364 31.0116 32.704 31.7973 33.4205C32.7802 34.3135 33.5486 35.4383 34.0159 36.712Z" stroke="#002140" stroke-width="0.65" stroke-linecap="round" stroke-linejoin="round"/>
<path d="M18.0671 36.6362L8.45898 20.3481C8.53513 20.1196 9.37272 18.7629 10.238 17.3958C10.9095 16.3332 11.5982 15.2602 11.9547 14.7099C12.1105 14.4642 12.2039 14.3223 12.2039 14.3223H26.803" stroke="#002140" stroke-width="0.65" stroke-linecap="round" stroke-linejoin="round"/>
<path d="M22.3034 31.5864L16.0146 20.8361L14.3048 17.9149L12.2039 14.3223" stroke="#002140" stroke-width="0.65" stroke-linecap="round" stroke-linejoin="round"/>
<path d="M15.9487 20.8359H16.0145H27.2908" stroke="#002140" stroke-width="0.65" stroke-linecap="round" stroke-linejoin="round"/>
<path d="M34.2929 36.6362L43.9044 20.3481C43.8352 20.1439 43.1637 19.0502 42.4092 17.8492C41.6547 16.6481 40.8171 15.3398 40.4087 14.7099C40.2495 14.4642 40.1595 14.3223 40.1595 14.3223H26.803" stroke="#002140" stroke-width="0.65" stroke-linecap="round" stroke-linejoin="round"/>
<path d="M30.0598 31.5864L36.3487 20.8361L37.9893 18.0291L40.1594 14.3223" stroke="#002140" stroke-width="0.65" stroke-linecap="round" stroke-linejoin="round"/>
<path d="M36.4111 20.8359H36.3488H27.6787H27.291" stroke="#002140" stroke-width="0.65" stroke-linecap="round" stroke-linejoin="round"/>
<path d="M10.5737 17.417L19.8599 33.5424" stroke="#002140" stroke-width="0.65" stroke-linecap="round" stroke-linejoin="round"/>
<path d="M14.322 17.9043H37.7746" stroke="#002140" stroke-width="0.65" stroke-linecap="round" stroke-linejoin="round"/>
<path d="M42.1737 17.9043L32.7249 33.2163" stroke="#002140" stroke-width="0.65" stroke-linecap="round" stroke-linejoin="round"/>
<path d="M27.5599 43.1604H25.2826V38.0012H23.6599V36.6641C25.0235 36.6641 25.6508 36.3075 25.7735 35.3604H27.5599V43.1604Z" fill="#002140"/>
</g>
<defs>
<clipPath id="clip0_26_81630">
<rect width="52" height="52" fill="white"/>
</clipPath>
</defs>
</svg>

<svg xmlns="http://www.w3.org/2000/svg" width="52" height="52" fill="none" viewBox="0 0 52 52"><g clip-path="url(#a)"><path fill="#fed607" d="M0 0h52v52H0z"/><path fill="#fed607" d="M26 52c14.36 0 26-11.64 26-26S40.36 0 26 0 0 11.64 0 26s11.64 26 26 26"/><path fill="#fed607" stroke="#002140" stroke-miterlimit="10" stroke-width=".65" d="M26 46.767c11.47 0 20.767-9.298 20.767-20.767S37.469 5.233 26 5.233C14.53 5.233 5.233 14.531 5.233 26c0 11.47 9.298 20.767 20.767 20.767Z"/><path fill="#e4bc07" d="m43.904 20.348-9.611 16.288-.277.076a8.3 8.3 0 0 0-2.219-3.292l.928-.204 9.449-15.312.235-.055c.755 1.2 1.426 2.294 1.495 2.499m-5.914-2.319-1.641 2.807H16.015l-1.71-2.921.017-.01h23.453z"/><path fill="#fff2b2" d="M34.016 36.712c.325.893.502 1.852.502 2.855a8.304 8.304 0 0 1-8.307 8.307 8.304 8.304 0 0 1-7.801-11.162 8.3 8.3 0 0 1 1.654-2.73 8.3 8.3 0 0 1 2.506-1.88 8.24 8.24 0 0 1 3.641-.841c1.004 0 1.966.176 2.855.505a8.2 8.2 0 0 1 2.731 1.654 8.3 8.3 0 0 1 2.219 3.292"/><path fill="#e4bc07" d="m19.86 33.542.204.44a8.3 8.3 0 0 0-1.654 2.73l-.343-.076L8.46 20.348c.076-.229.914-1.585 1.779-2.953l.336.021z"/><path stroke="#002140" stroke-linecap="round" stroke-linejoin="round" stroke-width=".65" d="M34.016 36.712c.325.893.502 1.852.502 2.855a8.304 8.304 0 0 1-8.307 8.307 8.304 8.304 0 0 1-7.801-11.162 8.3 8.3 0 0 1 1.654-2.73 8.3 8.3 0 0 1 2.506-1.88 8.24 8.24 0 0 1 3.641-.841c1.004 0 1.966.176 2.855.505a8.2 8.2 0 0 1 2.731 1.654 8.3 8.3 0 0 1 2.219 3.292m-15.949-.076L8.46 20.348c.076-.228.914-1.585 1.779-2.952a317 317 0 0 1 1.717-2.686c.155-.246.249-.388.249-.388h14.599"/><path stroke="#002140" stroke-linecap="round" stroke-linejoin="round" stroke-width=".65" d="m22.303 31.586-6.288-10.75-1.71-2.921-2.101-3.593m3.745 6.514H27.29m7.003 15.8 9.611-16.288c-.069-.204-.74-1.298-1.495-2.499a301 301 0 0 0-2-3.14c-.16-.245-.25-.387-.25-.387H26.804"/><path stroke="#002140" stroke-linecap="round" stroke-linejoin="round" stroke-width=".65" d="m30.06 31.586 6.289-10.75 1.64-2.807 2.17-3.707m-3.748 6.514h-9.12m-16.717-3.419 9.286 16.125m-5.538-15.638h23.453m4.399 0-9.45 15.312"/><path fill="#002140" d="M27.56 43.16h-2.277v-5.159H23.66v-1.337c1.363 0 1.99-.357 2.113-1.304h1.787z"/></g><defs><clipPath id="a"><path fill="#fff" d="M0 0h52v52H0z"/></clipPath></defs></svg>
